icons/carets-in-bottom-left-top-right.svg

<svg xmlns="http://www.w3.org/2000/svg" width="24" height="24" viewBox="0 0 24 24">
  <path d="M10,13 C10.5522847,13 11,13.4477153 11,14 L11,20.5857864 C11,21.1380712 10.5522847,21.5857864 10,21.5857864 C9.73478351,21.5857864 9.4804296,21.4804296 9.29289322,21.2928932 L2.70710678,14.7071068 C2.31658249,14.3165825 2.31658249,13.6834175 2.70710678,13.2928932 C2.89464316,13.1053568 3.14899707,13 3.41421356,13 L10,13 Z M14,2.41421356 C14.2652165,2.41421356 14.5195704,2.5195704 14.7071068,2.70710678 L21.2928932,9.29289322 C21.6834175,9.68341751 21.6834175,10.3165825 21.2928932,10.7071068 C21.1053568,10.8946432 20.8510029,11 20.5857864,11 L14,11 C13.4477153,11 13,10.5522847 13,10 L13,3.41421356 C13,2.86192881 13.4477153,2.41421356 14,2.41421356 Z"/>
</svg>

<svg xmlns="http://www.w3.org/2000/svg" viewBox="0 0 24 24">
  <path d="M10 13a1 1 0 0 1 1 1v6.59a1 1 0 0 1-1.7.7l-6.6-6.58A1 1 0 0 1 3.42 13H10zm4-10.59a1 1 0 0 1 .7.3l6.6 6.58a1 1 0 0 1-.71 1.71H14a1 1 0 0 1-1-1V3.41a1 1 0 0 1 1-1z"/>
</svg>
